optimized/line/water-flash.svg

<svg xmlns="http://www.w3.org/2000/svg" fill="currentColor" viewBox="0 0 24 24" aria-hidden="true">
  <path d="M12.005 3.103l-4.95 4.95a7 7 0 109.9 0l-4.95-4.95zm0-2.828l6.364 6.364A9 9 0 115.64 19.367a9 9 0 010-12.728L12.005.275zm1 10.728h2.5l-4.5 6.5v-4.5h-2.5l4.5-6.5v4.5z"/>
</svg>

<svg xmlns="http://www.w3.org/2000/svg" viewBox="0 0 24 24" aria-hidden="true">
  <path fill="none" d="M0 0h24v24H0z"/>
  <path d="M12 3.1L7.05 8.05a7 7 0 109.9 0L12 3.1zm0-2.828l6.364 6.364a9 9 0 11-12.728 0L12 .272zM13 11h2.5L11 17.5V13H8.5L13 6.5V11z"/>
</svg>
